X: 201
T: Money in Both Pockets
R: jig
M: 6/8
L: 1/8
Z: 2012 John Chambers <jc:trillian.mit.edu>
B: J. Anderson "Budget of Strathspeys, Reels and Country Dances" (Early 1800s) p.20 #1
F: http://imslp.org/wiki/Anderson%27s_Budget_of_Strathspeys,_Reels_and_Country_Dances_(Various)
K: D
A |\
d2F FGF | ABA AFA | d2F FGF | ABA f2e |\
d2F FGF | ABA AGF | EFE EFA | B3 A2 :|
|: B |\
dfa afd | cea ecA | dfa afd | (g3 f2)g |\
agf bag | agf ede | fdB AFA | B3 A2 :|

%%sep 2 1 500
%%sep 1 1 500

